src/assets/svg/transform/task.svg

<?xml version="1.0" encoding="UTF-8" standalone="no"?>
<svg
   xmlns:dc="http://purl.org/dc/elements/1.1/"
   xmlns:cc="http://creativecommons.org/ns#"
   xmlns:rdf="http://www.w3.org/1999/02/22-rdf-syntax-ns#"
   xmlns:svg="http://www.w3.org/2000/svg"
   xmlns="http://www.w3.org/2000/svg"
   xmlns:sodipodi="http://sodipodi.sourceforge.net/DTD/sodipodi-0.dtd"
   xmlns:inkscape="http://www.inkscape.org/namespaces/inkscape"
   width="50"
   height="50"
   viewBox="0 0 50 50"
   version="1.1"
   id="svg1031"
   sodipodi:docname="task.svg"
   inkscape:version="0.92.3 (2405546, 2018-03-11)"
   style="fill:none;enable-background:new">
  <metadata
     id="metadata1035">
    <rdf:RDF>
      <cc:Work
         rdf:about="">
        <dc:format>image/svg+xml</dc:format>
        <dc:type
           rdf:resource="http://purl.org/dc/dcmitype/StillImage" />
        <dc:title></dc:title>
      </cc:Work>
    </rdf:RDF>
  </metadata>
  <sodipodi:namedview
     pagecolor="#ffffff"
     bordercolor="#666666"
     borderopacity="1"
     objecttolerance="10"
     gridtolerance="10"
     guidetolerance="10"
     inkscape:pageopacity="0"
     inkscape:pageshadow="2"
     inkscape:window-width="1920"
     inkscape:window-height="1032"
     id="namedview1033"
     showgrid="false"
     inkscape:zoom="10.50907"
     inkscape:cx="21.525842"
     inkscape:cy="25.210147"
     inkscape:window-x="0"
     inkscape:window-y="27"
     inkscape:window-maximized="1"
     inkscape:current-layer="svg1031"
     fit-margin-top="0"
     fit-margin-left="0"
     fit-margin-right="0"
     fit-margin-bottom="0" />
  <circle
     style="fill:#4d7962"
     id="circle991"
     r="25"
     cy="25"
     cx="25"
     inkscape:label="Circle" />
  <defs
     id="defs1029">
    <filter
       style="color-interpolation-filters:sRGB"
       inkscape:label="Drop Shadow"
       id="filter4629"
       x="0"
       y="-0.039999999">
      <feFlood
         flood-opacity="0.25098"
         flood-color="rgb(0,0,0)"
         result="flood"
         id="feFlood4619" />
      <feComposite
         in="flood"
         in2="SourceGraphic"
         operator="in"
         result="composite1"
         id="feComposite4621" />
      <feGaussianBlur
         in="composite1"
         stdDeviation="4"
         result="blur"
         id="feGaussianBlur4623" />
      <feOffset
         dx="4"
         dy="0"
         result="offset"
         id="feOffset4625" />
      <feComposite
         in="SourceGraphic"
         in2="offset"
         operator="over"
         result="composite2"
         id="feComposite4627" />
    </filter>
  </defs>
  <g
     transform="translate(-4,1)"
     id="g9367">
    <path
       d="M 36.5,12.2381 H 35.25 V 11 h -12.5 v 1.2381 H 21.5 c -1.3807,0 -2.5,1.1086 -2.5,2.4762 V 34.5238 C 19,35.8914 20.1193,37 21.5,37 h 15 C 37.8807,37 39,35.8914 39,34.5238 V 14.7143 c 0,-1.3676 -1.1193,-2.4762 -2.5,-2.4762 z m -12.5,0 h 10 v 1.2381 H 24 Z m 13.75,22.2857 c 0,0.6827 -0.5608,1.2381 -1.25,1.2381 h -15 c -0.6892,0 -1.25,-0.5554 -1.25,-1.2381 V 14.7143 c 0,-0.6827 0.5608,-1.2381 1.25,-1.2381 h 1.25 v 1.2381 h 12.5 v -1.2381 h 1.25 c 0.6892,0 1.25,0.5554 1.25,1.2381 z m -15,-16.0952 h 12.5 v 1.2381 h -12.5 z m 0,3.7143 h 12.5 v 1.2381 h -12.5 z m 0,3.7142 h 12.5 v 1.2381 h -12.5 z m 0,3.7143 H 29 v 1.2381 h -6.25 z"
       id="path9365"
       inkscape:connector-curvature="0"
       style="fill:#def4e8" />
  </g>
</svg>

<svg width="58" height="58" viewBox="0 0 58 58" fill="none" xmlns="http://www.w3.org/2000/svg">
<g filter="url(#filter0_d)">
<circle cx="29" cy="25" r="25" fill="#4D7962"/>
</g>
<g filter="url(#filter1_d)">
<path d="M36.5 12.2381H35.25V11H22.75V12.2381H21.5C20.1193 12.2381 19 13.3467 19 14.7143V34.5238C19 35.8914 20.1193 37 21.5 37H36.5C37.8807 37 39 35.8914 39 34.5238V14.7143C39 13.3467 37.8807 12.2381 36.5 12.2381ZM24 12.2381H34V13.4762H24V12.2381ZM37.75 34.5238C37.75 35.2065 37.1892 35.7619 36.5 35.7619H21.5C20.8108 35.7619 20.25 35.2065 20.25 34.5238V14.7143C20.25 14.0316 20.8108 13.4762 21.5 13.4762H22.75V14.7143H35.25V13.4762H36.5C37.1892 13.4762 37.75 14.0316 37.75 14.7143V34.5238ZM22.75 18.4286H35.25V19.6667H22.75V18.4286ZM22.75 22.1429H35.25V23.381H22.75V22.1429ZM22.75 25.8571H35.25V27.0952H22.75V25.8571ZM22.75 29.5714H29V30.8095H22.75V29.5714Z" fill="#DEF4E8"/>
</g>
<defs>
<filter id="filter0_d" x="0" y="0" width="58" height="58" filterUnits="userSpaceOnUse" color-interpolation-filters="sRGB">
<feFlood flood-opacity="0" result="BackgroundImageFix"/>
<feColorMatrix in="SourceAlpha" type="matrix" values="0 0 0 0 0 0 0 0 0 0 0 0 0 0 0 0 0 0 127 0"/>
<feOffset dy="4"/>
<feGaussianBlur stdDeviation="2"/>
<feColorMatrix type="matrix" values="0 0 0 0 0 0 0 0 0 0 0 0 0 0 0 0 0 0 0.25 0"/>
<feBlend mode="normal" in2="BackgroundImageFix" result="effect1_dropShadow"/>
<feBlend mode="normal" in="SourceGraphic" in2="effect1_dropShadow" result="shape"/>
</filter>
<filter id="filter1_d" x="15" y="11" width="28" height="34" filterUnits="userSpaceOnUse" color-interpolation-filters="sRGB">
<feFlood flood-opacity="0" result="BackgroundImageFix"/>
<feColorMatrix in="SourceAlpha" type="matrix" values="0 0 0 0 0 0 0 0 0 0 0 0 0 0 0 0 0 0 127 0"/>
<feOffset dy="4"/>
<feGaussianBlur stdDeviation="2"/>
<feColorMatrix type="matrix" values="0 0 0 0 0 0 0 0 0 0 0 0 0 0 0 0 0 0 0.25 0"/>
<feBlend mode="normal" in2="BackgroundImageFix" result="effect1_dropShadow"/>
<feBlend mode="normal" in="SourceGraphic" in2="effect1_dropShadow" result="shape"/>
</filter>
</defs>
</svg>
